public/img/svg/old-phone.svg

<svg width="52" height="52" viewBox="0 0 52 52" fill="none" xmlns="http://www.w3.org/2000/svg">
<g clip-path="url(#clip0_50_78)">
<path d="M25.989 12.274C34.652 12.359 40.079 11.82 40.812 21.422H51.376C51.376 6.54699 38.403 4.54199 25.714 4.54199C13.024 4.54199 0.052002 6.54699 0.052002 21.422H10.534C11.345 11.637 17.398 12.19 25.989 12.274Z" fill="white"/>
<path d="M5.291 26.2041C7.864 26.2041 10.005 26.3581 10.481 23.8271C10.545 23.4831 10.582 23.0931 10.582 22.6421H10.46H0C0 26.4071 2.369 26.2041 5.291 26.2041Z" fill="white"/>
<path d="M40.88 22.6421H40.781C40.781 23.0961 40.82 23.4871 40.893 23.8271C41.395 26.1611 43.533 26.0161 46.097 26.0161C49.033 26.0161 51.413 26.2091 51.413 22.6421H40.88Z" fill="white"/>
<path d="M35.7191 20.0781V18.5821C35.7191 17.9131 34.9481 17.8711 33.9961 17.8711H32.4411C31.4901 17.8711 30.7191 17.9131 30.7191 18.5821V19.8711V20.8711H19.7191V19.8711V18.5821C19.7191 17.9131 18.9481 17.8711 17.9971 17.8711H16.4411C15.4901 17.8711 14.7191 17.9131 14.7191 18.5821V20.0781V21.3841C12.2131 23.9881 4.01309 35.0731 3.71509 36.4151L3.71909 45.3701C3.71909 46.1971 4.39209 46.8701 5.21909 46.8701H45.2191C46.0461 46.8701 46.7191 46.1971 46.7191 45.3701V36.3701C46.4241 35.0671 38.2261 23.9871 35.7191 21.3831V20.0781ZM19.1771 37.6201C18.3721 37.6201 17.7191 36.9681 17.7191 36.1621C17.7191 35.3561 18.3721 34.7041 19.1771 34.7041C19.9821 34.7041 20.6351 35.3561 20.6351 36.1621C20.6351 36.9681 19.9821 37.6201 19.1771 37.6201ZM19.1771 32.6201C18.3721 32.6201 17.7191 31.9681 17.7191 31.1621C17.7191 30.3561 18.3721 29.7041 19.1771 29.7041C19.9821 29.7041 20.6351 30.3561 20.6351 31.1621C20.6351 31.9681 19.9821 32.6201 19.1771 32.6201ZM19.1771 27.6211C18.3721 27.6211 17.7191 26.9691 17.7191 26.1631C17.7191 25.3581 18.3721 24.7051 19.1771 24.7051C19.9821 24.7051 20.6351 25.3581 20.6351 26.1631C20.6351 26.9691 19.9821 27.6211 19.1771 27.6211ZM25.1771 37.6201C24.3721 37.6201 23.7191 36.9681 23.7191 36.1621C23.7191 35.3561 24.3721 34.7041 25.1771 34.7041C25.9831 34.7041 26.6351 35.3561 26.6351 36.1621C26.6351 36.9681 25.9831 37.6201 25.1771 37.6201ZM25.1771 32.6201C24.3721 32.6201 23.7191 31.9681 23.7191 31.1621C23.7191 30.3561 24.3721 29.7041 25.1771 29.7041C25.9831 29.7041 26.6351 30.3561 26.6351 31.1621C26.6351 31.9681 25.9831 32.6201 25.1771 32.6201ZM25.1771 27.6211C24.3721 27.6211 23.7191 26.9691 23.7191 26.1631C23.7191 25.3581 24.3721 24.7051 25.1771 24.7051C25.9831 24.7051 26.6351 25.3581 26.6351 26.1631C26.6351 26.9691 25.9831 27.6211 25.1771 27.6211ZM31.1771 37.6201C30.3711 37.6201 29.7191 36.9681 29.7191 36.1621C29.7191 35.3561 30.3711 34.7041 31.1771 34.7041C31.9831 34.7041 32.6351 35.3561 32.6351 36.1621C32.6351 36.9681 31.9831 37.6201 31.1771 37.6201ZM31.1771 32.6201C30.3711 32.6201 29.7191 31.9681 29.7191 31.1621C29.7191 30.3561 30.3711 29.7041 31.1771 29.7041C31.9831 29.7041 32.6351 30.3561 32.6351 31.1621C32.6351 31.9681 31.9831 32.6201 31.1771 32.6201ZM31.1771 27.6211C30.3711 27.6211 29.7191 26.9691 29.7191 26.1631C29.7191 25.3581 30.3711 24.7051 31.1771 24.7051C31.9831 24.7051 32.6351 25.3581 32.6351 26.1631C32.6351 26.9691 31.9831 27.6211 31.1771 27.6211Z" fill="white"/>
</g>
<defs>
<clipPath id="clip0_50_78">
<rect width="51.413" height="51.413" fill="white"/>
</clipPath>
</defs>
</svg>

<?xml version="1.0" encoding="iso-8859-1"?>
<!-- Generator: Adobe Illustrator 18.1.1, SVG Export Plug-In . SVG Version: 6.00 Build 0)  -->
<svg version="1.1" id="Capa_1" xmlns="http://www.w3.org/2000/svg" xmlns:xlink="http://www.w3.org/1999/xlink" x="0px" y="0px"
	 viewBox="0 0 51.413 51.413" style="enable-background:new 0 0 51.413 51.413;" xml:space="preserve">
<g>
	<g>
		<path d="M25.989,12.274c8.663,0.085,14.09-0.454,14.823,9.148h10.564c0-14.875-12.973-16.88-25.662-16.88
			c-12.69,0-25.662,2.005-25.662,16.88h10.482C11.345,11.637,17.398,12.19,25.989,12.274z"/>
		<path d="M5.291,26.204c2.573,0,4.714,0.154,5.19-2.377c0.064-0.344,0.101-0.734,0.101-1.185H10.46H0
			C0,26.407,2.369,26.204,5.291,26.204z"/>
		<path d="M40.88,22.642h-0.099c0,0.454,0.039,0.845,0.112,1.185c0.502,2.334,2.64,2.189,5.204,2.189
			c2.936,0,5.316,0.193,5.316-3.374H40.88z"/>
		<path d="M35.719,20.078v-1.496c0-0.669-0.771-0.711-1.723-0.711h-1.555c-0.951,0-1.722,0.042-1.722,0.711
			v1.289v1h-11v-1v-1.289c0-0.669-0.771-0.711-1.722-0.711h-1.556c-0.951,0-1.722,0.042-1.722,0.711v1.496v1.306
			C12.213,23.988,4.013,35.073,3.715,36.415l0.004,8.955c0,0.827,0.673,1.5,1.5,1.5h40c0.827,0,1.5-0.673,1.5-1.5v-9
			c-0.295-1.303-8.493-12.383-11-14.987V20.078z M19.177,37.62c-0.805,0-1.458-0.652-1.458-1.458s0.653-1.458,1.458-1.458
			s1.458,0.652,1.458,1.458S19.982,37.62,19.177,37.62z M19.177,32.62c-0.805,0-1.458-0.652-1.458-1.458s0.653-1.458,1.458-1.458
			s1.458,0.652,1.458,1.458S19.982,32.62,19.177,32.62z M19.177,27.621c-0.805,0-1.458-0.652-1.458-1.458
			c0-0.805,0.653-1.458,1.458-1.458s1.458,0.653,1.458,1.458C20.635,26.969,19.982,27.621,19.177,27.621z M25.177,37.62
			c-0.805,0-1.458-0.652-1.458-1.458s0.653-1.458,1.458-1.458c0.806,0,1.458,0.652,1.458,1.458S25.983,37.62,25.177,37.62z
			 M25.177,32.62c-0.805,0-1.458-0.652-1.458-1.458s0.653-1.458,1.458-1.458c0.806,0,1.458,0.652,1.458,1.458
			S25.983,32.62,25.177,32.62z M25.177,27.621c-0.805,0-1.458-0.652-1.458-1.458c0-0.805,0.653-1.458,1.458-1.458
			c0.806,0,1.458,0.653,1.458,1.458C26.635,26.969,25.983,27.621,25.177,27.621z M31.177,37.62c-0.806,0-1.458-0.652-1.458-1.458
			s0.652-1.458,1.458-1.458s1.458,0.652,1.458,1.458S31.983,37.62,31.177,37.62z M31.177,32.62c-0.806,0-1.458-0.652-1.458-1.458
			s0.652-1.458,1.458-1.458s1.458,0.652,1.458,1.458S31.983,32.62,31.177,32.62z M31.177,27.621c-0.806,0-1.458-0.652-1.458-1.458
			c0-0.805,0.652-1.458,1.458-1.458s1.458,0.653,1.458,1.458C32.635,26.969,31.983,27.621,31.177,27.621z"/>
	</g>
</g>
<g>
</g>
<g>
</g>
<g>
</g>
<g>
</g>
<g>
</g>
<g>
</g>
<g>
</g>
<g>
</g>
<g>
</g>
<g>
</g>
<g>
</g>
<g>
</g>
<g>
</g>
<g>
</g>
<g>
</g>
</svg>
